img/email.svg

<svg fill="none" height="800" viewBox="0 0 24 24" width="800" xmlns="http://www.w3.org/2000/svg">
    <path d="m16 12c0 2.2091-1.7909 4-4 4-2.20914 0-4-1.7909-4-4 0-2.20914 1.79086-4 4-4 2.2091 0 4 1.79086 4 4zm0 0v1.5c0 1.3807 1.1193 2.5 2.5 2.5 1.3807 0 2.5-1.1193 2.5-2.5v-1.5c0-4.97056-4.0294-9-9-9-4.97056 0-9 4.02944-9 9 0 4.9706 4.02944 9 9 9h4"
          stroke="#ffffff" stroke-linecap="round" stroke-linejoin="round" stroke-width="2"/>
</svg>

<?xml version="1.0" encoding="utf-8"?><!-- Uploaded to: SVG Repo, www.svgrepo.com, Generator: SVG Repo Mixer Tools -->
<svg width="800px" height="800px" viewBox="0 0 24 24" fill="none" xmlns="http://www.w3.org/2000/svg">
    <path d="M16 12C16 14.2091 14.2091 16 12 16C9.79086 16 8 14.2091 8 12C8 9.79086 9.79086 8 12 8C14.2091 8 16 9.79086 16 12ZM16 12V13.5C16 14.8807 17.1193 16 18.5 16V16C19.8807 16 21 14.8807 21 13.5V12C21 7.02944 16.9706 3 12 3C7.02944 3 3 7.02944 3 12C3 16.9706 7.02944 21 12 21H16"
          stroke="#FFFFFF" stroke-width="2" stroke-linecap="round" stroke-linejoin="round"/>
</svg>
